svgs/duotone/chimney.svg

<svg xmlns="http://www.w3.org/2000/svg" viewBox="0 0 448 512"><!--! Font Awesome Pro 6.4.0 by @fontawesome - https://fontawesome.com License - https://fontawesome.com/license (Commercial License) Copyright 2023 Fonticons, Inc. --><defs><style>.fa-secondary{opacity:.4}</style></defs><path class="fa-primary" d="M32 32C14.3 32 0 46.3 0 64v64c0 17.7 14.3 32 32 32H416c17.7 0 32-14.3 32-32V64c0-17.7-14.3-32-32-32H32z"/><path class="fa-secondary" d="M128 192H32V320h96V192zm288 0H160V320H416V192zM288 352H32V480H288V352zm128 0H320V480h96V352z"/></svg>

<svg xmlns="http://www.w3.org/2000/svg" viewBox="0 0 448 512"><!--! Font Awesome Pro 6.6.0 by @fontawesome - https://fontawesome.com License - https://fontawesome.com/license (Commercial License) Copyright 2024 Fonticons, Inc. --><defs><style>.fa-secondary{opacity:.4}</style></defs><path class="fa-secondary" d="M32 192l0 128 96 0 0-128-96 0zm0 160l0 128 256 0 0-128L32 352zM160 192l0 128 256 0 0-128-256 0zM320 352l0 128 96 0 0-128-96 0z"/><path class="fa-primary" d="M32 32C14.3 32 0 46.3 0 64l0 64c0 17.7 14.3 32 32 32l384 0c17.7 0 32-14.3 32-32l0-64c0-17.7-14.3-32-32-32L32 32z"/></svg>
